X:1
T:Title
%%score { 1 | ( 2 3 ) }
L:1/8
M:4/4
K:G
V:1 treble nm="Grand Piano"
V:2 treble 
V:3 treble 
V:1
 z4 z2[Q:1/4=100] DG | B2 c2 d2 G2 | [FB]3 [FA] [FA]2 [Fd]2 | [Fe]2 [Fd]2 [CFA]2 [^CF_B]2 | %4
 [DGB]6 [B,D][DG] | [DGB]2 [DFB]2 [Gd]2 [G^c]2 | [Fe]3 [Fd] [FA]2 [FA]2 | %7
 [DB]2 [DG]2 [^CF]2 [CE]2 |[M:3/4] D6 |[M:1/4] Bc |[M:4/4] d2 [Gd]2 [E^GB]2 [DGB]2 | %11
 [DEB]3 [CEA] [CE]2 [CG]2 | G2 F2 G2 A2 | B6 B2 | [^Gc]3 [GB] [Ae]2 [Ec]2 | %15
 [FB]3 [FA] [Gd]2 [=F^d]2 | [Ee]2 [EAc]2 [DFB]2 [CFA]2 |[M:9/8] [B,G]8- [B,G] |] %18
V:2
 z4 z2 B,[B,D] | [G,DG]2 [G,A,G]2 [G,B,G]2[K:bass] [G,B,D]2 | [D,D]3 [D,C] [D,C]2 [D,C]2 | %3
 [D,A,]2 [D,B,]2 D,2 D,2 | z4 z2 G,2 | G,2 F,2 [E,B,]2 [E,A,]2 | [D,A,]3 [D,A,] [D,D]2 [D,D]2 | %7
 [G,B,]2 [E,B,]2 [A,,A,]2 [A,,G,]2 |[M:3/4] [D,F,]6 |[M:1/4] [G,D]2 | %10
[M:4/4] [G,B,G]2 [E,B,]2 E,2 E,2 | A,,3 A,, [A,,A,]2 [A,,A,]2 | [D,A,C]2 [D,A,C]2 [E,B,D]2 [F,D]2 | %13
 [G,DG]6 [G,DG]2 | [E,E]3 [E,D] [A,C]2 [A,C]2 | [D,D]3 [D,C] [G,,B,]2 [B,,G,]2 | %16
 [C,G,]2 A,,2 D,2 D,2 |[M:9/8] G,8- G, |] %18
V:3
 z4 z2 G,2 | x6[K:bass] x2 | x8 | x8 | G,,6 z B, | x8 | x8 | x8 |[M:3/4] x6 |[M:1/4] z A, | %10
[M:4/4] x8 | x8 | x8 | x8 | x8 | x8 | x8 |[M:9/8] x9 |] %18

